X:1
T: Miss Grace Gordon's Strathspey
C:
R:Strathspey
Q: 128
K:A
M:4/4
L:1/16
|:a2|eA3 c3A cde2 g4|d=G3 B3G Bd3 d3f|eA3 c3A cde2 a4|eA3 c3A c2e2 e2f2|
eA3 c3A cde2 g4|d=G3 B3G Bd3 d3f|ea3 ga3 fa3 ea3|eA3 c3A c2e2 e2g2|
agfe a3e cA3 a3e|fd3 =g3=G Bd3 d3=g|agfe a3e cA3 a3e|f3e aA3 ce3 e3g|
af3 ge3 fd3 ec3|dcBA B3=G Bd3 d3f|eA3 c3A cde2 f4|eA3 c3A ce3 e2:|
